X:9509
T:Les filles de Saint Nicolas
R:Bourre  deux temps
A:Massif Central
O:France
M:2/4
L:1/8
Q:1/4=120
K:G
B2G2|B>A Bc|AA GA|B2G2|B>A Bc|A3 G:|
|:d2A2|d>c BA|GG/2F/2 GA|B2AB/2c/2|d>c BA|G4:||
